Origami/16x16/apps/singular.svg

<svg width="16" height="16" version="1" xmlns="http://www.w3.org/2000/svg">
 <path d="m14 15.2v-14.4c0-0.4432-0.362375-0.8-0.8125-0.8h-11.375c-0.450125 0-0.8125 0.3568-0.8125 0.8v14.4c0 0.4432 0.362375 0.8 0.8125 0.8h11.375c0.450125 0 0.8125-0.3568 0.8125-0.8z" style="fill:#00679a"/>
 <path d="m10.25 1.25c0 1.2-3.969 8.5-6.4065 8.5-1.21875 0-1.5935-0.95-1.5935-1.75s0.37475-1.75 1.5935-1.75c2.453113-0.00861 6.4065 7.3 6.4065 8.5" style="fill:none;stroke-linecap:round;stroke-linejoin:round;stroke-width:.5;stroke:#ffffff"/>
 <path d="m11.25 3.25c0 1.1578784-3 4.75-3 4.75s3.010929 3.700346 3 4.75" style="fill:none;stroke-linecap:round;stroke-linejoin:round;stroke-width:.5;stroke:#ffffff"/>
 <path d="m12.25 5.25c0 0.4-1.999629 2.75-1.999629 2.75s2.019457 2.396342 1.999629 2.75" style="fill:none;stroke-linecap:round;stroke-linejoin:round;stroke-width:.5;stroke:#ffffff"/>
</svg>

<svg xmlns="http://www.w3.org/2000/svg" width="16" height="16" version="1">
 <path d="M 14,15.2 14,0.8 C 14,0.3568 13.637625,0 13.1875,0 L 1.8125,0 C 1.362375,0 1,0.3568 1,0.8 L 1,15.2 C 1,15.6432 1.362375,16 1.8125,16 l 11.375,0 C 13.637625,16 14,15.6432 14,15.2 Z" style="fill:#00679a"/>
 <path style="fill:none;stroke:#ffffff;stroke-width:0.5;stroke-linecap:round;stroke-linejoin:round" d="m 10.25,1.25 c 0,1.2 -3.969,8.5 -6.4065,8.5 C 2.62475,9.75 2.25,8.8 2.25,8 2.25,7.2 2.62475,6.25 3.8435,6.25 6.296613,6.24139 10.25,13.55 10.25,14.75"/>
 <path style="fill:none;stroke:#ffffff;stroke-width:0.5;stroke-linecap:round;stroke-linejoin:round" d="m 11.25,3.25 c 0,1.1578784 -3,4.75 -3,4.75 0,0 3.010929,3.700346 3,4.75"/>
 <path d="m 12.25,5.25 c 0,0.4 -1.999629,2.75 -1.999629,2.75 0,0 2.019457,2.396342 1.999629,2.75" style="fill:none;stroke:#ffffff;stroke-width:0.5;stroke-linecap:round;stroke-linejoin:round"/>
</svg>
